X:899
T:Drummer, The
T:Piper o' Dundee, The
S:Kerr's Merry Melodies
Z:Nigel Gatherer
M:4/4
L:1/8
K:Am
E | ABcA E2 E^F | GABc  dBGB | ABcA  E2 Ef | edcB A2-A :|
B | c2 ce d2 de | c2 ce dBGB | c2 ce d2 df | edcB A2-A :|
<end>
<start>
